packages/components/Atoms/Icon/assets/img/rpl_icon_alert_medical.svg

<svg width="20" height="20" viewBox="0 0 20 20" overflow="visible" xmlns="http://www.w3.org/2000/svg">
  <path fill-rule="evenodd" clip-rule="evenodd" d="M17.5 10H13V6.5H14.378L17.5 9.622V10ZM15 16.5C14.6022 16.5 14.2206 16.342 13.9393 16.0607C13.658 15.7794 13.5 15.3978 13.5 15C13.5 14.6022 13.658 14.2206 13.9393 13.9393C14.2206 13.658 14.6022 13.5 15 13.5C15.3978 13.5 15.7794 13.658 16.0607 13.9393C16.342 14.2206 16.5 14.6022 16.5 15C16.5 15.3978 16.342 15.7794 16.0607 16.0607C15.7794 16.342 15.3978 16.5 15 16.5ZM9.5 8.75C9.5 8.8163 9.47366 8.87989 9.42678 8.92678C9.37989 8.97366 9.3163 9 9.25 9H7.5V10.75C7.5 10.8163 7.47366 10.8799 7.42678 10.9268C7.37989 10.9737 7.3163 11 7.25 11H5.75C5.6837 11 5.62011 10.9737 5.57322 10.9268C5.52634 10.8799 5.5 10.8163 5.5 10.75V9H3.75C3.6837 9 3.62011 8.97366 3.57322 8.92678C3.52634 8.87989 3.5 8.8163 3.5 8.75V7.25C3.5 7.1837 3.52634 7.12011 3.57322 7.07322C3.62011 7.02634 3.6837 7 3.75 7H5.5V5.25C5.5 5.1837 5.52634 5.12011 5.57322 5.07322C5.62011 5.02634 5.6837 5 5.75 5H7.25C7.3163 5 7.37989 5.02634 7.42678 5.07322C7.47366 5.12011 7.5 5.1837 7.5 5.25V7H9.25C9.3163 7 9.37989 7.02634 9.42678 7.07322C9.47366 7.12011 9.5 7.1837 9.5 7.25V8.75ZM5 16.5C4.60218 16.5 4.22064 16.342 3.93934 16.0607C3.65804 15.7794 3.5 15.3978 3.5 15C3.5 14.6022 3.65804 14.2206 3.93934 13.9393C4.22064 13.658 4.60218 13.5 5 13.5C5.39782 13.5 5.77936 13.658 6.06066 13.9393C6.34196 14.2206 6.5 14.6022 6.5 15C6.5 15.3978 6.34196 15.7794 6.06066 16.0607C5.77936 16.342 5.39782 16.5 5 16.5ZM19.5 13H19V9.622C18.9996 9.22431 18.8414 8.84303 18.56 8.562L15.438 5.441C15.2988 5.30137 15.1335 5.19055 14.9514 5.11488C14.7693 5.03921 14.5742 5.00017 14.377 5H13V3.5C13 3.10218 12.842 2.72064 12.5607 2.43934C12.2794 2.15804 11.8978 2 11.5 2H1.5C1.10218 2 0.720644 2.15804 0.43934 2.43934C0.158035 2.72064 0 3.10218 0 3.5L0 13.5C0 13.8978 0.158035 14.2794 0.43934 14.5607C0.720644 14.842 1.10218 15 1.5 15H2C2 15.7956 2.31607 16.5587 2.87868 17.1213C3.44129 17.6839 4.20435 18 5 18C5.79565 18 6.55871 17.6839 7.12132 17.1213C7.68393 16.5587 8 15.7956 8 15H12C12 15.7956 12.3161 16.5587 12.8787 17.1213C13.4413 17.6839 14.2044 18 15 18C15.7956 18 16.5587 17.6839 17.1213 17.1213C17.6839 16.5587 18 15.7956 18 15H19.5C19.775 15 20 14.775 20 14.5V13.5C20 13.225 19.775 13 19.5 13Z"
    fill="inherit" />
</svg>

<svg width="20" height="20" overflow="visible" xmlns="http://www.w3.org/2000/svg"><path fill-rule="evenodd" clip-rule="evenodd" d="M17.5 10H13V6.5h1.378L17.5 9.622V10zM15 16.5a1.5 1.5 0 110-3 1.5 1.5 0 010 3zM9.5 8.75a.25.25 0 01-.25.25H7.5v1.75a.25.25 0 01-.25.25h-1.5a.25.25 0 01-.25-.25V9H3.75a.25.25 0 01-.25-.25v-1.5A.25.25 0 013.75 7H5.5V5.25A.25.25 0 015.75 5h1.5a.25.25 0 01.25.25V7h1.75a.25.25 0 01.25.25v1.5zM5 16.5a1.5 1.5 0 110-3 1.5 1.5 0 010 3zM19.5 13H19V9.622a1.5 1.5 0 00-.44-1.06l-3.122-3.121A1.5 1.5 0 0014.377 5H13V3.5A1.5 1.5 0 0011.5 2h-10A1.5 1.5 0 000 3.5v10A1.5 1.5 0 001.5 15H2a3 3 0 006 0h4a3 3 0 006 0h1.5c.275 0 .5-.225.5-.5v-1c0-.275-.225-.5-.5-.5z" fill="inherit"/></svg>
